X:45
T:Charles's Jigg
M:6/8
L:1/8
B:Thompson's Compleat Collection of 200 Favourite Country Dances, vol. 1 (London, 1757)
Z:Transcribed and edited by Fynnian Titford-Mock, 2007
Z:abc's:AK/Fiddler's Companion
K:F
cFF F2d|cFF F2d|cBA BAG|F3 f3|cFF F2d|cFF F2a|gec fd=B|c3 C3:|
|:cd_e d2c|dGG G3|Bcd c2B|cFF F3|fga def|Bcd GAB|AGF CFE|F3 f3:|

